status/24/battery_charged.svg

<?xml version="1.0" encoding="UTF-8" standalone="no"?>
<!-- Created with Inkscape (http://www.inkscape.org/) -->

<svg
   xmlns:svg="http://www.w3.org/2000/svg"
   xmlns="http://www.w3.org/2000/svg"
   xmlns:xlink="http://www.w3.org/1999/xlink"
   version="1.0"
   width="24"
   height="24"
   id="svg2">
  <defs
     id="defs4">
    <linearGradient
       id="linearGradient3564-531">
      <stop
         id="stop4452"
         style="stop-color:white;stop-opacity:0.37288135"
         offset="0" />
      <stop
         id="stop4454"
         style="stop-color:#a9a9a9;stop-opacity:0"
         offset="1" />
    </linearGradient>
    <linearGradient
       x1="24"
       y1="16.525082"
       x2="24"
       y2="13.284962"
       id="linearGradient3259"
       xlink:href="#linearGradient3564-531"
       gradientUnits="userSpaceOnUse" />
    <linearGradient
       id="linearGradient10033-588-987">
      <stop
         id="stop4446"
         style="stop-color:#e5e5e5;stop-opacity:1"
         offset="0" />
      <stop
         id="stop4448"
         style="stop-color:#b2b2b2;stop-opacity:1"
         offset="1" />
    </linearGradient>
    <linearGradient
       x1="15.036061"
       y1="11.205624"
       x2="19.776941"
       y2="18.184662"
       id="linearGradient3257"
       xlink:href="#linearGradient10033-588-987"
       gradientUnits="userSpaceOnUse" />
    <linearGradient
       id="linearGradient4173-908-339">
      <stop
         id="stop4476"
         style="stop-color:#b2b2b2;stop-opacity:1"
         offset="0" />
      <stop
         id="stop4478"
         style="stop-color:#e6e6e6;stop-opacity:1"
         offset="1" />
    </linearGradient>
    <linearGradient
       x1="21.714285"
       y1="10.285714"
       x2="27.038286"
       y2="10.285714"
       id="linearGradient3255"
       xlink:href="#linearGradient4173-908-339"
       gradientUnits="userSpaceOnUse"
       gradientTransform="matrix(0.5513378,0,0,0.6057331,-1.1102658,-3.9460965)" />
    <linearGradient
       id="linearGradient3598-871-484-814-161-889-287-317-39-832">
      <stop
         id="stop7589"
         style="stop-color:#58b8f4;stop-opacity:1"
         offset="0" />
      <stop
         id="stop7591"
         style="stop-color:#136ea8;stop-opacity:1"
         offset="1" />
    </linearGradient>
    <linearGradient
       x1="24"
       y1="16.525082"
       x2="24"
       y2="13.284962"
       id="linearGradient3247"
       xlink:href="#linearGradient3598-871-484-814-161-889-287-317-39-832"
       gradientUnits="userSpaceOnUse" />
    <linearGradient
       id="linearGradient3592-990-183-196-279-371-272-744-724-968">
      <stop
         id="stop7583"
         style="stop-color:#6aadd8;stop-opacity:1"
         offset="0" />
      <stop
         id="stop7585"
         style="stop-color:#0b85d3;stop-opacity:1"
         offset="1" />
    </linearGradient>
    <linearGradient
       x1="15.036061"
       y1="11.205624"
       x2="19.776941"
       y2="18.184662"
       id="linearGradient3245"
       xlink:href="#linearGradient3592-990-183-196-279-371-272-744-724-968"
       gradientUnits="userSpaceOnUse" />
    <linearGradient
       id="linearGradient3578-995-735-4-566-885-385-488-812-692">
      <stop
         id="stop7577"
         style="stop-color:#025e98;stop-opacity:1"
         offset="0" />
      <stop
         id="stop7579"
         style="stop-color:#3ba2e3;stop-opacity:1"
         offset="1" />
    </linearGradient>
    <linearGradient
       x1="4"
       y1="13.500015"
       x2="10.142856"
       y2="13.500015"
       id="linearGradient3227"
       xlink:href="#linearGradient3578-995-735-4-566-885-385-488-812-692"
       gradientUnits="userSpaceOnUse"
       gradientTransform="matrix(0.8666667,0,0,1,1.5999997,-1.0000155)"
       spreadMethod="reflect" />
  </defs>
  <g
     id="layer1">
    <g
       id="g3551">
      <path
         d="m 5.5,3.5 c 0,6.666667 0,11.145832 0,17.8125 0.00145,0.0087 0.027551,0.02149 0.03125,0.03125 C 5.5196405,21.392793 5.5,21.450047 5.5,21.5 c 0,1.110072 2.9059279,2 6.5,2 3.594072,0 6.5,-0.889929 6.5,-2 0,-0.01943 0.0018,-0.04321 0,-0.0625 0,-6.666667 0,-11.270833 0,-17.9375 -4.333333,0 -8.6666667,0 -13,0 z"
         id="rect2432"
         style="fill:url(#linearGradient3227);fill-opacity:1;fill-rule:nonzero;stroke:#176597;stroke-width:0.99999994;stroke-linecap:round;stroke-linejoin:round;stroke-miterlimit:10;stroke-opacity:1;stroke-dasharray:none;stroke-dashoffset:0;marker:none;visibility:visible;display:inline;overflow:visible;enable-background:accumulate" />
      <path
         d="m 36.857142,14.071428 a 12.857142,5.5 0 1 1 -25.714284,0 12.857142,5.5 0 1 1 25.714284,0 z"
         transform="matrix(0.5064111,0,0,0.3656364,-0.1538667,-1.6450266)"
         id="path3243"
         style="fill:url(#linearGradient3245);fill-opacity:1;fill-rule:nonzero;stroke:url(#linearGradient3247);stroke-width:2.27280688;stroke-linecap:butt;stroke-linejoin:round;stroke-miterlimit:10;stroke-opacity:1;stroke-dasharray:none;stroke-dashoffset:0;marker:none;visibility:visible;display:block;overflow:visible" />
      <path
         d="m 12.060888,0.6710315 c -1.3001,-0.0182745 -2.5534034,0.2607403 -2.5534034,0.6457571 0,0.038185 0,1.2927322 0,1.3325007 0,0.5321464 1.4491864,0.8432262 2.5534034,0.8432262 1.104215,0 2.431627,-0.3110798 2.431627,-0.8432262 0,-0.031498 0,-1.0506783 0,-1.3325007 0,-0.2818226 -1.11929,-0.6273107 -2.431627,-0.6457571 z"
         id="path3251"
         style="opacity:0.3;fill:url(#linearGradient3255);fill-opacity:1;fill-rule:nonzero;stroke:#919191;stroke-width:1.01496899;stroke-linecap:butt;stroke-linejoin:round;stroke-miterlimit:10;stroke-opacity:1;stroke-dasharray:none;stroke-dashoffset:0;marker:none;visibility:visible;display:block;overflow:visible" />
      <path
         d="m 36.857142,14.071428 a 12.857142,5.5 0 1 1 -25.714284,0 12.857142,5.5 0 1 1 25.714284,0 z"
         transform="matrix(0.1938623,0,0,0.11461,7.3473048,-0.4748872)"
         id="path3253"
         style="opacity:0.4;fill:url(#linearGradient3257);fill-opacity:1;fill-rule:nonzero;stroke:url(#linearGradient3259);stroke-width:6.80917931;stroke-linecap:butt;stroke-linejoin:round;stroke-miterlimit:10;stroke-opacity:1;stroke-dasharray:none;stroke-dashoffset:0;marker:none;visibility:visible;display:block;overflow:visible" />
    </g>
    <path
       d="M 10,6 C 9.3341626,6 8.7657796,6.1717204 8.40625,6.53125 8.2264852,6.7110148 8.1200789,6.9210132 8.0625,7.09375 8.0049211,7.2664868 8,7.5 8,7.5 l 0,2.875 c -0.5510374,0.31611 -1,0.783823 -1,1.46875 l 0,5.3125 C 7,18.209 7.9282149,19 8.9375,19 L 10,19 l 0,4 a 0.99512418,0.99512418 0 0 0 1,1 l 2,0 a 0.99512418,0.99512418 0 0 0 1,-1 l 0,-4 1.0625,0 C 16.071785,19 17,18.208999 17,17.15625 l 0,-5.3125 C 17,11.158822 16.551037,10.69111 16,10.375 L 16,7.5 C 16,7.5 15.9951,7.2664868 15.9375,7.09375 15.879921,6.9210132 15.773515,6.7110148 15.59375,6.53125 15.23422,6.1717204 14.665837,6 14,6 13.334163,6 12.76578,6.1717204 12.40625,6.53125 12.226485,6.7110148 12.120079,6.9210132 12.0625,7.09375 12.004921,7.2664868 12,7.5 12,7.5 12,7.5 11.995079,7.2664868 11.9375,7.09375 11.879921,6.9210132 11.773515,6.7110148 11.59375,6.53125 11.23422,6.1717204 10.665837,6 10,6 z"
       id="path3518"
       style="opacity:0.2;fill:white;fill-opacity:1;fill-rule:nonzero;stroke:none;stroke-width:0.97799999;marker:none;visibility:visible;display:block;overflow:visible;enable-background:accumulate" />
    <path
       d="M 10,7 C 9,7 9,7.5 9,7.5 L 9,11 8.9375,11 C 8.4111523,11 8,11.383196 8,11.84375 l 0,5.3125 C 8,17.616804 8.4111527,18 8.9375,18 L 11,18 l 0,5 2,0 0,-5 2.0625,0 C 15.588848,18 16,17.616804 16,17.15625 l 0,-5.3125 C 16,11.383196 15.588847,11 15.0625,11 L 15,11 15,7.5 C 15,7.5 15,7 14,7 13,7 13,7.5 13,7.5 l 0,3.5 -2,0 0,-3.5 C 11,7.5 11,7 10,7 z"
       id="rect2736"
       style="fill:black;fill-opacity:1;fill-rule:nonzero;stroke:none;stroke-width:0.97799999;marker:none;visibility:visible;display:block;overflow:visible;enable-background:accumulate" />
  </g>
</svg>

<?xml version="1.0" encoding="UTF-8" standalone="no"?>
<!-- Created with Inkscape (http://www.inkscape.org/) -->
<svg
   xmlns:dc="http://purl.org/dc/elements/1.1/"
   xmlns:cc="http://creativecommons.org/ns#"
   xmlns:rdf="http://www.w3.org/1999/02/22-rdf-syntax-ns#"
   xmlns:svg="http://www.w3.org/2000/svg"
   xmlns="http://www.w3.org/2000/svg"
   xmlns:xlink="http://www.w3.org/1999/xlink"
   xmlns:sodipodi="http://sodipodi.sourceforge.net/DTD/sodipodi-0.dtd"
   xmlns:inkscape="http://www.inkscape.org/namespaces/inkscape"
   width="24"
   height="24"
   id="svg2"
   sodipodi:version="0.32"
   inkscape:version="0.46"
   version="1.0"
   sodipodi:docname="battery_charged.svg"
   inkscape:output_extension="org.inkscape.output.svg.inkscape">
  <defs
     id="defs4">
    <linearGradient
       id="linearGradient3564-531">
      <stop
         id="stop4452"
         style="stop-color:#ffffff;stop-opacity:0.37288135"
         offset="0" />
      <stop
         id="stop4454"
         style="stop-color:#a9a9a9;stop-opacity:0"
         offset="1" />
    </linearGradient>
    <linearGradient
       x1="24"
       y1="16.525082"
       x2="24"
       y2="13.284962"
       id="linearGradient3259"
       xlink:href="#linearGradient3564-531"
       gradientUnits="userSpaceOnUse" />
    <linearGradient
       id="linearGradient10033-588-987">
      <stop
         id="stop4446"
         style="stop-color:#e5e5e5;stop-opacity:1"
         offset="0" />
      <stop
         id="stop4448"
         style="stop-color:#b2b2b2;stop-opacity:1"
         offset="1" />
    </linearGradient>
    <linearGradient
       x1="15.036061"
       y1="11.205624"
       x2="19.776941"
       y2="18.184662"
       id="linearGradient3257"
       xlink:href="#linearGradient10033-588-987"
       gradientUnits="userSpaceOnUse" />
    <linearGradient
       id="linearGradient4173-908-339">
      <stop
         id="stop4476"
         style="stop-color:#b2b2b2;stop-opacity:1"
         offset="0" />
      <stop
         id="stop4478"
         style="stop-color:#e6e6e6;stop-opacity:1"
         offset="1" />
    </linearGradient>
    <linearGradient
       x1="21.714285"
       y1="10.285714"
       x2="27.038286"
       y2="10.285714"
       id="linearGradient3255"
       xlink:href="#linearGradient4173-908-339"
       gradientUnits="userSpaceOnUse"
       gradientTransform="matrix(0.5513378,0,0,0.6057331,-1.1102658,-3.9460965)" />
    <linearGradient
       id="linearGradient3598-871-484-814-161-889-287-317-39-832">
      <stop
         id="stop7589"
         style="stop-color:#58b8f4;stop-opacity:1"
         offset="0" />
      <stop
         id="stop7591"
         style="stop-color:#136ea8;stop-opacity:1"
         offset="1" />
    </linearGradient>
    <linearGradient
       x1="24"
       y1="16.525082"
       x2="24"
       y2="13.284962"
       id="linearGradient3247"
       xlink:href="#linearGradient3598-871-484-814-161-889-287-317-39-832"
       gradientUnits="userSpaceOnUse" />
    <linearGradient
       id="linearGradient3592-990-183-196-279-371-272-744-724-968">
      <stop
         id="stop7583"
         style="stop-color:#6aadd8;stop-opacity:1"
         offset="0" />
      <stop
         id="stop7585"
         style="stop-color:#0b85d3;stop-opacity:1"
         offset="1" />
    </linearGradient>
    <linearGradient
       x1="15.036061"
       y1="11.205624"
       x2="19.776941"
       y2="18.184662"
       id="linearGradient3245"
       xlink:href="#linearGradient3592-990-183-196-279-371-272-744-724-968"
       gradientUnits="userSpaceOnUse" />
    <linearGradient
       id="linearGradient3578-995-735-4-566-885-385-488-812-692">
      <stop
         id="stop7577"
         style="stop-color:#025e98;stop-opacity:1"
         offset="0" />
      <stop
         id="stop7579"
         style="stop-color:#3ba2e3;stop-opacity:1"
         offset="1" />
    </linearGradient>
    <linearGradient
       x1="4"
       y1="13.500015"
       x2="10.142856"
       y2="13.500015"
       id="linearGradient3227"
       xlink:href="#linearGradient3578-995-735-4-566-885-385-488-812-692"
       gradientUnits="userSpaceOnUse"
       gradientTransform="matrix(0.8666667,0,0,1,1.5999997,-1.0000155)"
       spreadMethod="reflect" />
  </defs>
  <sodipodi:namedview
     id="base"
     pagecolor="#ffffff"
     bordercolor="#666666"
     borderopacity="1.0"
     gridtolerance="10000"
     guidetolerance="10"
     objecttolerance="10"
     inkscape:pageopacity="0.0"
     inkscape:pageshadow="2"
     inkscape:zoom="10.375"
     inkscape:cx="12"
     inkscape:cy="12"
     inkscape:document-units="px"
     inkscape:current-layer="layer1"
     showgrid="false"
     inkscape:window-width="640"
     inkscape:window-height="720"
     inkscape:window-x="798"
     inkscape:window-y="24" />
  <metadata
     id="metadata7">
    <rdf:RDF>
      <cc:Work
         rdf:about="">
        <dc:format>image/svg+xml</dc:format>
        <dc:type
           rdf:resource="http://purl.org/dc/dcmitype/StillImage" />
      </cc:Work>
    </rdf:RDF>
  </metadata>
  <g
     inkscape:label="Layer 1"
     inkscape:groupmode="layer"
     id="layer1">
    <g
       id="g3551">
      <path
         d="M 5.5,3.5 C 5.5,10.166667 5.5,14.645832 5.5,21.3125 C 5.5014479,21.321187 5.5275514,21.333988 5.53125,21.34375 C 5.5196405,21.392793 5.5,21.450047 5.5,21.5 C 5.5,22.610072 8.4059279,23.5 12,23.5 C 15.594072,23.5 18.5,22.610071 18.5,21.5 C 18.5,21.480574 18.501775,21.456794 18.5,21.4375 C 18.5,14.770833 18.5,10.166667 18.5,3.5 C 14.166667,3.5 9.8333333,3.5 5.5,3.5 z"
         id="rect2432"
         style="fill:url(#linearGradient3227);fill-opacity:1;fill-rule:nonzero;stroke:#176597;stroke-width:0.99999994;stroke-linecap:round;stroke-linejoin:round;marker:none;marker-start:none;marker-mid:none;marker-end:none;stroke-miterlimit:10;stroke-dasharray:none;stroke-dashoffset:0;stroke-opacity:1;visibility:visible;display:inline;overflow:visible;enable-background:accumulate" />
      <path
         d="M 36.857142,14.071428 A 12.857142,5.5 0 1 1 11.142858,14.071428 A 12.857142,5.5 0 1 1 36.857142,14.071428 z"
         transform="matrix(0.5064111,0,0,0.3656364,-0.1538667,-1.6450266)"
         id="path3243"
         style="fill:url(#linearGradient3245);fill-opacity:1;fill-rule:nonzero;stroke:url(#linearGradient3247);stroke-width:2.27280688;stroke-linecap:butt;stroke-linejoin:round;marker:none;marker-start:none;marker-mid:none;marker-end:none;stroke-miterlimit:10;stroke-dasharray:none;stroke-dashoffset:0;stroke-opacity:1;visibility:visible;display:block;overflow:visible" />
      <path
         d="M 12.060888,0.6710315 C 10.760788,0.652757 9.5074846,0.9317718 9.5074846,1.3167886 C 9.5074846,1.354974 9.5074846,2.6095208 9.5074846,2.6492893 C 9.5074846,3.1814357 10.956671,3.4925155 12.060888,3.4925155 C 13.165103,3.4925155 14.492515,3.1814357 14.492515,2.6492893 C 14.492515,2.6177912 14.492515,1.598611 14.492515,1.3167886 C 14.492515,1.034966 13.373225,0.6894779 12.060888,0.6710315 z"
         id="path3251"
         style="opacity:0.3;fill:url(#linearGradient3255);fill-opacity:1;fill-rule:nonzero;stroke:#919191;stroke-width:1.01496899;stroke-linecap:butt;stroke-linejoin:round;marker:none;marker-start:none;marker-mid:none;marker-end:none;stroke-miterlimit:10;stroke-dasharray:none;stroke-dashoffset:0;stroke-opacity:1;visibility:visible;display:block;overflow:visible" />
      <path
         d="M 36.857142,14.071428 A 12.857142,5.5 0 1 1 11.142858,14.071428 A 12.857142,5.5 0 1 1 36.857142,14.071428 z"
         transform="matrix(0.1938623,0,0,0.11461,7.3473048,-0.4748872)"
         id="path3253"
         style="opacity:0.4;fill:url(#linearGradient3257);fill-opacity:1;fill-rule:nonzero;stroke:url(#linearGradient3259);stroke-width:6.80917931;stroke-linecap:butt;stroke-linejoin:round;marker:none;marker-start:none;marker-mid:none;marker-end:none;stroke-miterlimit:10;stroke-dasharray:none;stroke-dashoffset:0;stroke-opacity:1;visibility:visible;display:block;overflow:visible" />
    </g>
    <path
       sodipodi:type="inkscape:offset"
       inkscape:radius="0.99502468"
       inkscape:original="M 10 7 C 9 7 9 7.5 9 7.5 L 9 11 L 8.9375 11 C 8.4111523 11 8 11.383196 8 11.84375 L 8 17.15625 C 8 17.616804 8.4111527 18 8.9375 18 L 11 18 L 11 23 L 13 23 L 13 18 L 15.0625 18 C 15.588848 18 16 17.616804 16 17.15625 L 16 11.84375 C 16 11.383196 15.588847 11 15.0625 11 L 15 11 L 15 7.5 C 15 7.5 15 7 14 7 C 13 7 13 7.5 13 7.5 L 13 11 L 11 11 L 11 7.5 C 11 7.5 11 7 10 7 z "
       style="opacity:0.20000000000000001;fill:#ffffff;fill-opacity:1;fill-rule:nonzero;stroke:none;stroke-width:0.97799999000000004;stroke-linecap:butt;stroke-linejoin:round;marker:none;marker-start:none;marker-mid:none;marker-end:none;stroke-miterlimit:10;stroke-dasharray:none;stroke-dashoffset:0;stroke-opacity:1;visibility:visible;display:block;overflow:visible;enable-background:accumulate"
       id="path3518"
       d="M 10,6 C 9.3341626,6 8.7657796,6.1717204 8.40625,6.53125 C 8.2264852,6.7110148 8.1200789,6.9210132 8.0625,7.09375 C 8.0049211,7.2664868 8,7.5 8,7.5 L 8,10.375 C 7.4489626,10.69111 7,11.158823 7,11.84375 L 7,17.15625 C 7,18.209 7.9282149,19 8.9375,19 L 10,19 L 10,23 C 9.9986953,23.265614 10.103633,23.520727 10.291453,23.708547 C 10.479273,23.896367 10.734386,24.001305 11,24 L 13,24 C 13.265614,24.001305 13.520727,23.896367 13.708547,23.708547 C 13.896367,23.520727 14.001305,23.265614 14,23 L 14,19 L 15.0625,19 C 16.071785,19 17,18.208999 17,17.15625 L 17,11.84375 C 17,11.158822 16.551037,10.69111 16,10.375 L 16,7.5 C 16,7.5 15.995079,7.2664868 15.9375,7.09375 C 15.879921,6.9210132 15.773515,6.7110148 15.59375,6.53125 C 15.23422,6.1717204 14.665837,6 14,6 C 13.334163,6 12.76578,6.1717204 12.40625,6.53125 C 12.226485,6.7110148 12.120079,6.9210132 12.0625,7.09375 C 12.004921,7.2664868 12,7.5 12,7.5 C 12,7.5 11.995079,7.2664868 11.9375,7.09375 C 11.879921,6.9210132 11.773515,6.7110148 11.59375,6.53125 C 11.23422,6.1717204 10.665837,6 10,6 z" />
    <path
       style="opacity:1;fill:#000000;fill-opacity:1;fill-rule:nonzero;stroke:none;stroke-width:0.97799999000000004;stroke-linecap:butt;stroke-linejoin:round;marker:none;marker-start:none;marker-mid:none;marker-end:none;stroke-miterlimit:10;stroke-dasharray:none;stroke-dashoffset:0;stroke-opacity:1;visibility:visible;display:block;overflow:visible;enable-background:accumulate"
       d="M 10 7 C 9 7 9 7.5 9 7.5 L 9 11 L 8.9375 11 C 8.4111523 11 8 11.383196 8 11.84375 L 8 17.15625 C 8 17.616804 8.4111527 18 8.9375 18 L 11 18 L 11 23 L 13 23 L 13 18 L 15.0625 18 C 15.588848 18 16 17.616804 16 17.15625 L 16 11.84375 C 16 11.383196 15.588847 11 15.0625 11 L 15 11 L 15 7.5 C 15 7.5 15 7 14 7 C 13 7 13 7.5 13 7.5 L 13 11 L 11 11 L 11 7.5 C 11 7.5 11 7 10 7 z "
       id="rect2736" />
  </g>
</svg>
